X: 38265
T: St. Andrew's Flight
R: reel
M: 4/4
K: Edorian
|:B2BA BdAF|EFED E4|B2BA Bde3|edef edA|
B2BA BdAF|EFED EEE2|BABd ABAF|1 EFED E4:|2 EFED E2 B/c/d||
|:eBB/B/B eBgB|fBB/B/B fBaB|bBB/B/B aBB/B/B|gBbB aBgf|
eBB/B/B eBgB|fBB/B/B fBaB|bBB/B/B aBB/B/B|gfef gfed:|

